X: 1
T: Zasviril Stojan
O: Macedonia
R: lesnoto
D: Tanec ____
M: 7/8
L: 1/8
K: Dm
[| "Gm"fgg gf ag | "Dm"~f2e de fg | "C"~f2e fg ec |1 "Dm"dec de fg :|2 "Dm"d3- d4 ||
|| "F"F3 F2 G2 | A2G "C7"G4- | G3- G4 | c2d cB AG | "F"G3 F4- | F3- F4 |
|: "F"c2d cB AG | "Dm"F2E D2 AG | "Bb"F2E FG "C"EC | "Dm"D3- D4 :|
